X:43
T:A Quick Step
C:His Grace the Duke of Gordon
S:Petrie's Third Collection of Strathspey Reels and Country Dances &c.
Z:Steve Wyrick , 7/30/05
N:Petrie's Third Collection, page 17
L:1/8
M:6/8
R:Quickstep
K:Bb
B/c/|(dB).d (dB).d|cAF F2(B/c/)|(dB).d (dB).d|c3F2(B/c/)|(dB).d (dB).d|cAF F2B|Ged cBA|B3B2::d/e/|
fdB fdB|gab Hf3|fdB fdB|cAF F2d/e/|fdB fdB|gab Hf3|dfB ceA|BBB B3:|]
%The staccato markings really should be wedges; there's no standard way to notate this in abc -SW
